dist/img/adobe-illustrator-svgrepo-com.svg

<?xml version="1.0" encoding="utf-8"?><!-- Uploaded to: SVG Repo, www.svgrepo.com, Generator: SVG Repo Mixer Tools -->
<svg width="800px" height="800px" viewBox="0 0 32 32" fill="none" xmlns="http://www.w3.org/2000/svg">
<path d="M2 12.1333C2 8.58633 2 6.81283 2.69029 5.45806C3.29749 4.26637 4.26637 3.29749 5.45806 2.69029C6.81283 2 8.58633 2 12.1333 2H19.8667C23.4137 2 25.1872 2 26.5419 2.69029C27.7336 3.29749 28.7025 4.26637 29.3097 5.45806C30 6.81283 30 8.58633 30 12.1333V19.8667C30 23.4137 30 25.1872 29.3097 26.5419C28.7025 27.7336 27.7336 28.7025 26.5419 29.3097C25.1872 30 23.4137 30 19.8667 30H12.1333C8.58633 30 6.81283 30 5.45806 29.3097C4.26637 28.7025 3.29749 27.7336 2.69029 26.5419C2 25.1872 2 23.4137 2 19.8667V12.1333Z" fill="#330000"/>
<path d="M15.5686 19.5963H11.2297L10.3469 22.409C10.3224 22.5135 10.2262 22.5875 10.1215 22.5823H7.92384C7.79851 22.5823 7.75469 22.5117 7.79236 22.3704L11.549 11.2738C11.5866 11.1582 11.6242 11.0266 11.6617 10.8789C11.7109 10.6218 11.736 10.3606 11.7369 10.0987C11.7261 10.0213 11.7941 9.95294 11.8683 9.96378H14.8549C14.9424 9.96378 14.9924 9.9959 15.0051 10.0601L19.269 22.3897C19.3065 22.5182 19.269 22.5824 19.1563 22.5823H16.7144C16.6288 22.5921 16.547 22.5334 16.5266 22.4475L15.5686 19.5963ZM11.9059 17.1689H14.8737C14.3861 15.5027 13.8358 13.8584 13.3898 12.1793C12.9086 13.8613 12.3836 15.5365 11.9059 17.1689Z" fill="#FF9A00"/>
<path d="M21.8045 12.0058C21.6129 12.0137 21.4219 11.98 21.2438 11.907C21.0658 11.834 20.9048 11.7232 20.7714 11.582C20.6384 11.4346 20.535 11.2618 20.4673 11.0733C20.3996 10.8849 20.3689 10.6846 20.3769 10.4839C20.3701 10.2852 20.4042 10.0873 20.477 9.90305C20.5499 9.71881 20.6598 9.5524 20.7996 9.41468C20.938 9.27839 21.1014 9.17161 21.2804 9.10052C21.4593 9.02942 21.6502 8.99543 21.842 9.00049C22.2929 9.00049 22.6466 9.13856 22.9033 9.41468C23.0329 9.55818 23.1336 9.72648 23.1997 9.90995C23.2657 10.0934 23.2959 10.2885 23.2883 10.4839C23.2962 10.6853 23.2645 10.8864 23.1951 11.075C23.1258 11.2636 23.0201 11.436 22.8845 11.582C22.7428 11.7253 22.5736 11.8369 22.3878 11.9099C22.2019 11.9828 22.0033 12.0155 21.8045 12.0058ZM20.5084 22.3896V13.181C20.5084 13.0654 20.5583 13.0076 20.6587 13.0076H22.9691C23.0691 13.0076 23.1192 13.0654 23.1193 13.181V22.3896C23.1193 22.5182 23.0692 22.5824 22.9691 22.5823H20.6775C20.5648 22.5823 20.5084 22.5181 20.5084 22.3896Z" fill="#FF9A00"/>
</svg>

<svg xmlns="http://www.w3.org/2000/svg" width="800" height="800" fill="none" viewBox="0 0 32 32"><path fill="#300" d="M2 12.133c0-3.547 0-5.32.69-6.675A6.33 6.33 0 0 1 5.458 2.69C6.813 2 8.586 2 12.133 2h7.734c3.547 0 5.32 0 6.675.69a6.33 6.33 0 0 1 2.768 2.768c.69 1.355.69 3.128.69 6.675v7.734c0 3.547 0 5.32-.69 6.675a6.33 6.33 0 0 1-2.768 2.768c-1.355.69-3.128.69-6.675.69h-7.734c-3.547 0-5.32 0-6.675-.69a6.33 6.33 0 0 1-2.768-2.768C2 25.187 2 23.414 2 19.867z"/><path fill="#FF9A00" d="M15.569 19.596h-4.34l-.882 2.813a.224.224 0 0 1-.226.173H7.924q-.188 0-.132-.212l3.757-11.096q.056-.174.113-.395.073-.386.075-.78c-.01-.078.057-.146.131-.135h2.987q.13 0 .15.096l4.264 12.33q.057.192-.113.192h-2.442a.176.176 0 0 1-.187-.134zm-3.663-2.427h2.968c-.488-1.666-1.038-3.31-1.484-4.99-.481 1.682-1.006 3.358-1.484 4.99M21.805 12.006a1.33 1.33 0 0 1-1.034-.424 1.53 1.53 0 0 1-.394-1.098 1.45 1.45 0 0 1 .423-1.07A1.45 1.45 0 0 1 21.842 9q.676 0 1.061.415a1.5 1.5 0 0 1 .385 1.069 1.54 1.54 0 0 1-.404 1.098 1.409 1.409 0 0 1-1.08.424M20.508 22.39V13.18q0-.173.15-.173h2.311q.15 0 .15.173v9.209q0 .192-.15.192h-2.292q-.168 0-.169-.192"/></svg>
